source/svgs/bowtie/uE963-mail-message.svg

<svg xmlns="http://www.w3.org/2000/svg" viewBox="0 0 448 448" enable-background="new 0 0 448 448"><path d="M0 64v320h448v-320h-448zm394.508 32l-170.508 115.109-170.508-115.109h341.016zm21.492 256h-384v-231.896l192 129.6 192-129.6v231.896z"/></svg>

<svg xmlns="http://www.w3.org/2000/svg" viewBox="0 0 448 448"><path d="M0 64v320h448V64H0zm394.508 32L224 211.109 53.492 96h341.016zM416 352H32V120.104l192 129.6 192-129.6V352z"/></svg>
